X: 93
T: Missa O gloriosa domina / Kyrie
N: Derived from Rue1021a-Missa_O_gloriosa_domina-Kyrie.krn
C: Pierre de la Rue
%%abc-version 2.0
%%abcx-abcm2ps-target-version 5.9.1 (29 Sep 2008)
%%abc-creator hum2abc beta
%%abcx-conversion-date 2019/02/17 08:01:13
%%abc-edited-by Jesse Rodin
%%abc-edited-by Chris Gage 03-26-2013
%%abcx-initial-encoding-date 2013/07/27/
%%humdrum-veritas 3101372741
%%humdrum-veritas-data 1956327906
%%linebreak <none>
%%barnumbers 0
L: 1/4
M: 4/2
Q: 1/2=120
%%staves [1 2 3 4]
V: 1 clef=treble
V: 2 clef=treble
V: 3 clef=treble-8
V: 4 clef=bass
K: C
[V:1] d8 | 
[V:2] z8 | 
[V:3] d8 | 
[V:4] z8 | 
[V:1] A8 | 
[V:2] z8 | 
[V:3] d4A4- | 
[V:4] z8 | 
[V:1] c2d2e4 | 
[V:2] z8 | 
[V:3] A2B2c4 | 
[V:4] z8 | 
[V:1] f6d2- | 
[V:2] z8 | 
[V:3] d8 | 
[V:4] z8 | 
[V:1] d2cBA4 | 
[V:2] z8 | 
[V:3] z4f4- | 
[V:4] z8 | 
[V:1] z2f4e2 | 
[V:2] z8 | 
[V:3] f4g4 | 
[V:4] z8 | 
[V:1] dcBAB4 | 
[V:2] z8 | 
[V:3] g2a3^g^g2 | 
[V:4] z8 | 
[V:1] c3de2f2- | 
[V:2] z8 | 
[V:3] a4a2a2- | 
[V:4] z8 | 
[V:1] f2e3dd2 | 
[V:2] z4A4- | 
[V:3] agfef4 | 
[V:4] D8 | 
[V:1] e2cBcde2- | 
[V:2] A4E4- | 
[V:3] e8 | 
[V:4] A,8 | 
[V:1] e2dcB4 | 
[V:2] E2F2G4 | 
[V:3] z8 | 
[V:4] C2D2E4 | 
[V:1] A8 | 
[V:2] A4z2F2- | 
[V:3] z8 | 
[V:4] F6D2- | 
[V:1] z8 | 
[V:2] FEFGA4- | 
[V:3] z8 | 
[V:4] D2CB,A,2D2 | 
[V:1] z8 | 
[V:2] A2F2G3E | 
[V:3] z8 | 
[V:4] C2F4E2 | 
[V:1] z8 | 
[V:2] FEA4^G2 | 
[V:3] z4d4 | 
[V:4] DCB,A,B,4 | 
[V:1] z8 | 
[V:2] A8 | 
[V:3] e2c4f2- | 
[V:4] A,4z2A,2 | 
[V:1] z8 | 
[V:2] z8 | 
[V:3] fedcdce2- | 
[V:4] F,2_B,4A,2 | 
[V:1] z8 | 
[V:2] z2A2G3E | 
[V:3] e2d3^c^c2 | 
[V:4] G,2F,2E,4 | 
[V:1] A4G2F2 | 
[V:2] FGAF_B2A2- | 
[V:3] d8- | 
[V:4] D,4G,2D,2 | 
[V:1] G3_BA4 | 
[V:2] A2G4F2 | 
[V:3] d8 | 
[V:4] G,4D,4 | 
[V:1] G2c3BB2 | 
[V:2] G2A4G2 | 
[V:3] z8 | 
[V:4] G,2F,E,F,2G,2 | 
[V:1] c2A2B4 | 
[V:2] FEF2G4 | 
[V:3] z8 | 
[V:4] A,4G,4 | 
[V:1] z2B3cdB | 
[V:2] z2G4G2 | 
[V:3] d8 | 
[V:4] z2G,3A,B,2 | 
[V:1] c2B4e2- | 
[V:2] C2G3AB2 | 
[V:3] e8 | 
[V:4] A,2G,2E,4- | 
[V:1] efgef2e2- | 
[V:2] G4A2G2- | 
[V:3] e4z2e2- | 
[V:4] E,4z2C2- | 
[V:1] e2e2d2e2- | 
[V:2] G2c2B2c2 | 
[V:3] efgef2e2- | 
[V:4] C2C2D2C2- | 
[V:1] e2dcd4 | 
[V:2] A3GFED2 | 
[V:3] e2a4g2 | 
[V:4] C2A,2_B,4 | 
[V:1] z2c2d2_B2 | 
[V:2] z2A2F2G2 | 
[V:3] f2e4d2 | 
[V:4] A,4_B,4 | 
[V:1] c3de2f2- | 
[V:2] A4A2A2- | 
[V:3] f2e3dcB | 
[V:4] A,8 | 
[V:1] f2d2e2g2- | 
[V:2] A2G4E2 | 
[V:3] A2d4^c2 | 
[V:4] F,2G,2E,4 | 
[V:1] gff4d2- | 
[V:2] F3GA4 | 
[V:3] d8 | 
[V:4] D,8 | 
[V:1] d2cBc4 | 
[V:2] D4z2E2 | 
[V:3] z2f4e2 | 
[V:4] D,4A,4 | 
[V:1] c8- | 
[V:2] F3GA4- | 
[V:3] a3gf2ed | 
[V:4] A,8- | 
[V:1] c8 ||  
[V:2] A8 ||  
[V:3] e8 ||  
[V:4] A,8 ||  
[V:1]  [K:C] [K:clef=treble][M:2/1]c6A2 | 
[V:2]  [K:C] [K:clef=treble][M:2/1]A8 | 
[V:3]  [K:C] [K:clef=treble-8][M:2/1]e4f3e | 
[V:4]  [K:C] [K:clef=bass][M:2/1]A,8 | 
[V:1] c2d2e4 | 
[V:2] A8 | 
[V:3] e2d4^c2 | 
[V:4] A,4A,4 | 
[V:1] f4f2d2- | 
[V:2] F3GA2_B2 | 
[V:3] d8- | 
[V:4] D,3E,F,2G,2 | 
[V:1] dcB2A4 | 
[V:2] A2G4^F2 | 
[V:3] d8 | 
[V:4] F,2G,2D,4 | 
[V:1] B6G2 | 
[V:2] G6E2 | 
[V:3] d4e3d | 
[V:4] G,8- | 
[V:1] B2c2d4 | 
[V:2] G2FED4 | 
[V:3] d2c4B2 | 
[V:4] G,8 | 
[V:1] e4e2c2- | 
[V:2] CDEFG2A2- | 
[V:3] c8 | 
[V:4] z2C4A,2 | 
[V:1] c2BAB4 | 
[V:2] AGF4E2 | 
[V:3] z2c2d2B2 | 
[V:4] F,2A,2G,4 | 
[V:1] A8 | 
[V:2] F8 | 
[V:3] c2d4c2 | 
[V:4] F,8- | 
[V:1] z4c4- | 
[V:2] z4A4- | 
[V:3] A2a4f2- | 
[V:4] F,8 | 
[V:1] c4c4 | 
[V:2] A4A4 | 
[V:3] f2ede4 | 
[V:4] A,8 | 
[V:1] d4A2d2- | 
[V:2] F3GA2D2- | 
[V:3] d4d2B2- | 
[V:4] _B,3A,F,2G,2 | 
[V:1] d2cBA3B | 
[V:2] D2G2FEF2 | 
[V:3] B2AGA4 | 
[V:4] D,8 | 
[V:1] B2d4B2- | 
[V:2] G2_B3AG2- | 
[V:3] G8 | 
[V:4] z8 | 
[V:1] B2AGA4 | 
[V:2] G2^FEF4 | 
[V:3] z4d4 | 
[V:4] z8 | 
[V:1] G4z4 | 
[V:2] G4z4 | 
[V:3] d2e4c2- | 
[V:4] G,4A,4 | 
[V:1] z8 | 
[V:2] z8 | 
[V:3] c2A4d2- | 
[V:4] F,4D,4 | 
[V:1] z8 | 
[V:2] z8 | 
[V:3] d2c2d2f2- | 
[V:4] E,4D,4 | 
[V:1] z8 | 
[V:2] z8 | 
[V:3] f2e3cd2- | 
[V:4] A,3B,CA,B,2- | 
[V:1] z8 | 
[V:2] z4A4 | 
[V:3] dcB2A4 | 
[V:4] B,A,G,4^F,2 | 
[V:1] d4e4 | 
[V:2] B4G4 | 
[V:3] G4z4 | 
[V:4] G,4z4 | 
[V:1] c4A4 | 
[V:2] E4z2A2- | 
[V:3] z8 | 
[V:4] z8 | 
[V:1] B4A4 | 
[V:2] A2G2A2F2- | 
[V:3] z8 | 
[V:4] z8 | 
[V:1] z2d4c2 | 
[V:2] F2EDE4 | 
[V:3] z8 | 
[V:4] z8 | 
[V:1] d3df2e2- | 
[V:2] D4A4 | 
[V:3] z8 | 
[V:4] z8 | 
[V:1] e2d4c2 | 
[V:2] G2F4A2 | 
[V:3] z4d4 | 
[V:4] z8 | 
[V:1] B4A4 | 
[V:2] G2E3DCB, | 
[V:3] e4c4 | 
[V:4] G,4A,4 | 
[V:1] z8 | 
[V:2] C4D4 | 
[V:3] A4z2a2- | 
[V:4] F,4D,4 | 
[V:1] z8 | 
[V:2] z8 | 
[V:3] a2f2d2g2- | 
[V:4] z2D4B,2 | 
[V:1] z4d4 | 
[V:2] z8 | 
[V:3] g2fed4 | 
[V:4] G,2C4B,2 | 
[V:1] e4c4 | 
[V:2] G4A4 | 
[V:3] c4z4 | 
[V:4] C4z4 | 
[V:1] A2c2d2f2- | 
[V:2] F4D4 | 
[V:3] z8 | 
[V:4] z8 | 
[V:1] f2e4d2- | 
[V:2] A8- | 
[V:3] c3de2f2 | 
[V:4] A,3B,C2D2 | 
[V:1] d2c2f4 | 
[V:2] A8 | 
[V:3] e4d4 | 
[V:4] A,4D,4 | 
[V:1] e3dcBc2- | 
[V:2] A8 | 
[V:3] c4e4- | 
[V:4] A,8 | 
[V:1] c2BAB4 | 
[V:2] G4G4 | 
[V:3] e4e4 | 
[V:4] E,8 | 
[V:1] A8- | 
[V:2] A2GFE2FE | 
[V:3] e4c4 | 
[V:4] A,8 | 
[V:1] A8- | 
[V:2] F4F2D2- | 
[V:3] A2c2d2f2- | 
[V:4] F,4D,4 | 
[V:1] A8- | 
[V:2] D2C2F4 | 
[V:3] f2e2d4 | 
[V:4] A,4D,4 | 
[V:1] A8 ||  
[V:2] E8 ||  
[V:3] c8 ||  
[V:4] A,8 ||  
[V:1]  [K:C] [K:clef=treble][M:3/1]A4A2c4c2 | 
[V:2]  [K:C] [K:clef=treble][M:3/1]F6E2CDEF | 
[V:3]  [K:C] [K:clef=treble-8][M:3/1]z12 | 
[V:4]  [K:C] [K:clef=bass][M:3/1]D4D2C2A,2C2 | 
[V:1] B2d4cBA4 | 
[V:2] G2A4DEFGAF | 
[V:3] d4d2f4f2 | 
[V:4] G,2F,2D,4D4 | 
[V:1] G2d4f4f2 | 
[V:2] G3FD3EFGA2- | 
[V:3] e2g4fed4 | 
[V:4] z2G,3F,D,3E,F,G, | 
[V:1] e2g4fed4 | 
[V:2] A2G2B2A4^G2 | 
[V:3] c4z4z4 | 
[V:4] A,2E,2G,2A,2B,4 | 
[V:1] c4c2e3fge | 
[V:2] A4A2B4G2 | 
[V:3] e4e2g4g2 | 
[V:4] A,6G,2E,4 | 
[V:1] f3eedd4^c2 | 
[V:2] A4z4z2A2 | 
[V:3] f2a4gfe4 | 
[V:4] D,4z4z2A,2 | 
[V:1] d4z2B2c2BA | 
[V:2] F2_B3AG4^F2 | 
[V:3] d8z4 | 
[V:4] _B,2D3G,=B,2A,4 | 
[V:1] B4z2d2c2BA | 
[V:2] G4z2G2A2F2 | 
[V:3] d6B2c4 | 
[V:4] G,2B,3G,B,2A,4 | 
[V:1] B2G2B2c2A4 | 
[V:2] G6E2F4 | 
[V:3] d2e4c2d4 | 
[V:4] G,3E,G,2A,2F,4 | 
[V:1] G4z2e2f3d | 
[V:2] z2G3FE2D4 | 
[V:3] e3fg2a2f4 | 
[V:4] E,2E4C2D2B,2 | 
[V:1] efg3fe2d4 | 
[V:2] C4G2A4^G2 | 
[V:3] e8z4 | 
[V:4] C2E3DC2B,4 | 
[V:1] c4z4z4 | 
[V:2] A6B4G2 | 
[V:3] e4e2g4e2 | 
[V:4] A,4z4z4 | 
[V:1] z2d2e4f2ed | 
[V:2] A2B3AA4G2 | 
[V:3] f2edc4z2d2 | 
[V:4] D3CA,2C2_B,4 | 
[V:1] c2e3dd2e2g2- | 
[V:2] A4z4z2G2 | 
[V:3] e4f3ec2e2- | 
[V:4] A,4D,4z4 | 
[V:1] g2f2e2e4dc | 
[V:2] A4GFEDC4 | 
[V:3] e2d2e2g4f2 | 
[V:4] z4z2G,2A,4 | 
[V:1] B3cd2e3fg2 | 
[V:2] D2E2D2C2E4 | 
[V:3] g8g4 | 
[V:4] G,3A,B,2C3DE2 | 
[V:1] f2e4d3^cc2 | 
[V:2] D2E2F2A3GFE | 
[V:3] a3gf2ede4 | 
[V:4] F2C2D4A,4 | 
[V:1] d12- | 
[V:2] FEDCB,2A,2A4 | 
[V:3] d12- | 
[V:4] D,12- | 
[V:1] d12 |]  
[V:2] A12 |]  
[V:3] d12 |]  
[V:4] D,12 |]  



